X:5011
T:Eriskay Love Lilt
T:Bheir Me O
R:Waltz
C:Trad.
O:Scotland
Z:Paul Hardy's Session Tunebook 2015 (see www.paulhardy.net). Creative Commons cc by-nc-sa licenced.
M:3/4
L:1/8
Q:1/4=90
K:G
GB|"G"d3 e dB|G4 GB|d3 e dB|"Am"A4 DE|"D"F3 GA2|d4 "Em"EE|"D"D3 E "G"G2|G4:|

